public/assets/icons/white/orbit.svg

<?xml version="1.0" encoding="UTF-8" standalone="no"?>
<svg
   version="1.1"
   viewBox="0 -64 1024 1024"
   width="512"
   height="512"
   id="svg1"
   sodipodi:docname="orbit.svg"
   inkscape:version="1.3.1 (91b66b0783, 2023-11-16)"
   xmlns:inkscape="http://www.inkscape.org/namespaces/inkscape"
   xmlns:sodipodi="http://sodipodi.sourceforge.net/DTD/sodipodi-0.dtd"
   xmlns="http://www.w3.org/2000/svg"
   xmlns:svg="http://www.w3.org/2000/svg">
  <defs
     id="defs1" />
  <sodipodi:namedview
     id="namedview1"
     pagecolor="#ffffff"
     bordercolor="#000000"
     borderopacity="0.25"
     inkscape:showpageshadow="2"
     inkscape:pageopacity="0.0"
     inkscape:pagecheckerboard="0"
     inkscape:deskcolor="#d1d1d1"
     inkscape:zoom="1.5742188"
     inkscape:cx="256"
     inkscape:cy="255.68238"
     inkscape:window-width="1920"
     inkscape:window-height="1009"
     inkscape:window-x="3832"
     inkscape:window-y="-8"
     inkscape:window-maximized="1"
     inkscape:current-layer="svg1" />
  <g
     transform="matrix(1 0 0 -1 0 960)"
     id="g1"
     style="fill:#ffffff">
    <path
       fill="currentColor"
       d="M499 908q-46 -1 -89 -11q-44 -10 -83.5 -27.5t-74.5 -41.5q-35 -25 -65 -55v0q-32 -31 -56 -68q-25 -37 -42.5 -78t-27.5 -86q-9 -45 -9 -93q0 -95 36 -179t98.5 -146.5t146.5 -98.5t179 -36q55 0 106 12t97 35l-3 -2q8 -9 19.5 -14.5t25.5 -5.5q25 0 42.5 18t17.5 43 q0 6 -1.5 12.5t-4.5 12.5v0q7 5 13.5 11t12.5 13q31 31 56 67q25 37 42.5 78t27.5 86q9 45 9 93v0.5v0.5v0v0v0q0 95 -36 179t-98.5 146.5t-146.5 98.5t-179 36h-7.5h-6.5h1v0zM515 878q88 -1 166 -35q77 -34 135 -92t91 -136q34 -78 34 -167q0 -44 -9 -86t-25 -80.5 t-39 -72.5q-24 -35 -53 -64v0q-5 -6 -11 -11t-12 -11h-1q-7 5 -15.5 7.5t-18.5 2.5q-25 0 -42.5 -17.5t-17.5 -42.5v-6t1 -6v1q-41 -21 -88.5 -32t-98.5 -11q-89 0 -167 34q-78 33 -136.5 91.5t-92.5 136.5q-34 79 -34 167q0 89 34 168q34 78 92.5 136.5t136.5 91.5 q78 34 167 34h2h2v0v0zM499 753q-62 -3 -115 -28t-93 -67v0v-13h50l15 -33l41 9l51 4l54 -26l27 -27l-17 -24l-54 -10l28 -39l9 -14l-25 -37l-38 11l-32 -14l-12 -24h-51l-21 26v47l-38 5l-20 -40l-6 -52l17 -42l32 -37l15 -46l-13 -15l-46 14q41 -63 108 -100.5t147 -37.5 q63 0 119 24q55 24 96.5 65.5t65.5 97.5q24 55 24 119q0 23 -3.5 45t-9.5 42l1 -2l-24 -67l-111 -102l-22 30l49 89l-2 55l-47 -31l-14 54l61 128h3q-38 29 -85.5 46t-100.5 17h-7.5h-6.5h1v0zM563 411l37 -9l12 -59l-59 -55l-10 -100l-38 -23l-27 60l-58 34l-27 74l25 56 l145 22v0z"
       id="path1"
       style="fill:#ffffff" />
  </g>
</svg>

<?xml version="1.0" encoding="UTF-8" standalone="no"?>
<svg
   version="1.1"
   viewBox="0 -64 1024 1024"
   width="512"
   height="512"
   id="svg1"
   sodipodi:docname="orbit.svg"
   inkscape:version="1.2.2 (732a01da63, 2022-12-09)"
   xmlns:inkscape="http://www.inkscape.org/namespaces/inkscape"
   xmlns:sodipodi="http://sodipodi.sourceforge.net/DTD/sodipodi-0.dtd"
   xmlns="http://www.w3.org/2000/svg"
   xmlns:svg="http://www.w3.org/2000/svg">
  <defs
     id="defs1" />
  <sodipodi:namedview
     id="namedview1"
     pagecolor="#ffffff"
     bordercolor="#000000"
     borderopacity="0.25"
     inkscape:showpageshadow="2"
     inkscape:pageopacity="0.0"
     inkscape:pagecheckerboard="0"
     inkscape:deskcolor="#d1d1d1"
     inkscape:zoom="1.5742188"
     inkscape:cx="235.99007"
     inkscape:cy="255.99999"
     inkscape:window-width="1920"
     inkscape:window-height="1009"
     inkscape:window-x="-8"
     inkscape:window-y="-8"
     inkscape:window-maximized="1"
     inkscape:current-layer="svg1"
     showgrid="false" />
  <g
     transform="matrix(1,0,0,-1,0,896)"
     id="g1"
     style="fill:#ffffff">
    <path
       fill="currentColor"
       d="M 499,908 Q 453,907 410,897 366,887 326.5,869.5 287,852 252,828 217,803 187,773 v 0 Q 155,742 131,705 106,668 88.5,627 71,586 61,541 52,496 52,448 52,353 88,269 124,185 186.5,122.5 249,60 333,24 q 84,-36 179,-36 55,0 106,12 51,12 97,35 l -3,-2 Q 720,24 731.5,18.5 743,13 757,13 q 25,0 42.5,18 17.5,18 17.5,43 0,6 -1.5,12.5 Q 814,93 811,99 v 0 q 7,5 13.5,11 6.5,6 12.5,13 31,31 56,67 25,37 42.5,78 17.5,41 27.5,86 9,45 9,93 v 0.5 0.5 0 0 0 q 0,95 -36,179 -36,84 -98.5,146.5 Q 775,836 691,872 607,908 512,908 h -7.5 -6.5 1 z m 16,-30 q 88,-1 166,-35 77,-34 135,-92 58,-58 91,-136 34,-78 34,-167 0,-44 -9,-86 -9,-42 -25,-80.5 Q 891,243 868,209 844,174 815,145 v 0 q -5,-6 -11,-11 -6,-5 -12,-11 h -1 q -7,5 -15.5,7.5 Q 767,133 757,133 732,133 714.5,115.5 697,98 697,73 v -6 q 0,0 1,-6 v 1 Q 657,41 609.5,30 562,19 511,19 422,19 344,53 266,86 207.5,144.5 149,203 115,281 81,360 81,448 q 0,89 34,168 34,78 92.5,136.5 Q 266,811 344,844 q 78,34 167,34 h 2 2 v 0 z M 499,753 q -62,-3 -115,-28 -53,-25 -93,-67 v 0 -13 h 50 l 15,-33 41,9 51,4 54,-26 27,-27 -17,-24 -54,-10 28,-39 9,-14 -25,-37 -38,11 -32,-14 -12,-24 h -51 l -21,26 v 47 l -38,5 -20,-40 -6,-52 17,-42 32,-37 15,-46 -13,-15 -46,14 Q 298,218 365,180.5 432,143 512,143 q 63,0 119,24 55,24 96.5,65.5 41.5,41.5 65.5,97.5 24,55 24,119 0,23 -3.5,45 -3.5,22 -9.5,42 l 1,-2 -24,-67 -111,-102 -22,30 49,89 -2,55 -47,-31 -14,54 61,128 h 3 Q 660,719 612.5,736 565,753 512,753 h -7.5 -6.5 1 z m 64,-342 37,-9 12,-59 -59,-55 -10,-100 -38,-23 -27,60 -58,34 -27,74 25,56 145,22 z"
       id="path1"
       style="fill:#ffffff" />
  </g>
</svg>
